icon-themes/breeze_svg/cmd/sc_movepagefirst.svg

<svg viewBox="0 0 16 16" xmlns="http://www.w3.org/2000/svg">/&gt;<path d="m2 2v1h12v-1zm6 2.5-1.875 1.953125-4.125 4.298828.125.128906.375.390625.21875.228516 4.125-4.296875 1.15625-1.2382812 1.15625 1.2382812 4.125 4.296875.71875-.748047-4.125-4.298828z" fill="#4d4d4d"/></svg>

<svg xmlns="http://www.w3.org/2000/svg" viewBox="0 0 16 16">
     />
 <path 
     style="fill:#4d4d4d" 
     d="M 2 2 L 2 3 L 14 3 L 14 2 L 2 2 z M 8 4.5 L 6.125 6.453125 L 2 10.751953 L 2.125 10.880859 L 2.5 11.271484 L 2.71875 11.5 L 6.84375 7.203125 L 8 5.9648438 L 9.15625 7.203125 L 13.28125 11.5 L 14 10.751953 L 9.875 6.453125 L 8 4.5 z "
     />
 </svg>
